X: 30957
T: Ox, The
R: strathspey
M: 4/4
K: Aminor
A>B A<G A2|A>B c>B A<G E2|D>C D<D D>C D<E|D>C A,<G, A,2 A,>G|
A>B A<G A>G A>B|c>e d<c A2 (3 ABc|B2 B<c d>B|e>d c2 A2 A:|
B2 e2 g4|a<g e<d [A,E]2 (3 GAB|A>G E<D E2|(3 EGA G>E D<C A,>G
B2 e2 a4|b<a g2 e>d c>G|A>B (3 cBA B<G A>G|E>D (3 EDC D>C A,>G:|

